Numix/22/emotes/face-hug-right.svg

<?xml version="1.0" encoding="UTF-8" standalone="no"?>
<svg
   xmlns:dc="http://purl.org/dc/elements/1.1/"
   xmlns:cc="http://creativecommons.org/ns#"
   xmlns:rdf="http://www.w3.org/1999/02/22-rdf-syntax-ns#"
   xmlns:svg="http://www.w3.org/2000/svg"
   xmlns="http://www.w3.org/2000/svg"
   xmlns:sodipodi="http://sodipodi.sourceforge.net/DTD/sodipodi-0.dtd"
   xmlns:inkscape="http://www.inkscape.org/namespaces/inkscape"
   width="22px"
   height="22px"
   viewBox="0 0 18 18"
   version="1.1"
   id="svg1463"
   inkscape:version="0.91 r"
   sodipodi:docname="face-hug-right.svg">
  <metadata
     id="metadata1482">
    <rdf:RDF>
      <cc:Work
         rdf:about="">
        <dc:format>image/svg+xml</dc:format>
        <dc:type
           rdf:resource="http://purl.org/dc/dcmitype/StillImage" />
      </cc:Work>
    </rdf:RDF>
  </metadata>
  <defs
     id="defs1480" />
  <sodipodi:namedview
     pagecolor="#ffffff"
     bordercolor="#666666"
     borderopacity="1"
     objecttolerance="10"
     gridtolerance="10"
     guidetolerance="10"
     inkscape:pageopacity="0"
     inkscape:pageshadow="2"
     inkscape:window-width="640"
     inkscape:window-height="480"
     id="namedview1478" />
  <g
     id="surface1">
    <path
       style=" stroke:none;fill-rule:nonzero;fill:rgb(81.568627%,62.745098%,0%);fill-opacity:1;"
       d="M 3.375 9.1875 C 3.375 8.875 2.789062 8.625 2.0625 8.625 C 1.335938 8.625 0.75 8.875 0.75 9.1875 C 0.75 9.5 1.335938 9.75 2.0625 9.75 C 2.789062 9.75 3.375 9.5 3.375 9.1875 Z M 3.375 9.1875 "
       id="path1466" />
    <path
       style=" stroke:none;fill-rule:nonzero;fill:rgb(100%,85.490196%,36.862745%);fill-opacity:1;"
       d="M 15.75 9 C 15.75 12.210938 12.726562 14.8125 9 14.8125 C 5.273438 14.8125 2.25 12.210938 2.25 9 C 2.25 5.789062 5.273438 3.1875 9 3.1875 C 12.726562 3.1875 15.75 5.789062 15.75 9 Z M 15.75 9 "
       id="path1468" />
    <path
       style=" stroke:none;fill-rule:nonzero;fill:rgb(39.607843%,39.607843%,39.607843%);fill-opacity:1;"
       d="M 5.25 6.75 C 4.730469 6.75 4.3125 7.167969 4.3125 7.6875 C 4.3125 7.78125 4.328125 7.875 4.355469 7.96875 C 4.480469 7.578125 4.839844 7.3125 5.25 7.3125 C 5.660156 7.3125 6.019531 7.578125 6.144531 7.96875 C 6.171875 7.878906 6.1875 7.785156 6.1875 7.6875 C 6.1875 7.167969 5.769531 6.75 5.25 6.75 Z M 5.25 6.75 "
       id="path1470" />
    <path
       style=" stroke:none;fill-rule:nonzero;fill:rgb(39.607843%,39.607843%,39.607843%);fill-opacity:1;"
       d="M 9.75 6.75 C 9.230469 6.75 8.8125 7.167969 8.8125 7.6875 C 8.8125 7.78125 8.828125 7.875 8.855469 7.96875 C 8.980469 7.578125 9.339844 7.3125 9.75 7.3125 C 10.160156 7.3125 10.519531 7.578125 10.644531 7.96875 C 10.671875 7.878906 10.6875 7.785156 10.6875 7.6875 C 10.6875 7.167969 10.269531 6.75 9.75 6.75 Z M 9.75 6.75 "
       id="path1472" />
    <path
       style=" stroke:none;fill-rule:nonzero;fill:rgb(39.607843%,39.607843%,39.607843%);fill-opacity:1;"
       d="M 4.914062 10.5 C 5.125 11.582031 6.21875 12.375 7.5 12.375 C 8.78125 12.375 9.871094 11.582031 10.085938 10.5 L 9.722656 10.5 C 9.566406 11.144531 8.617188 11.625 7.5 11.625 C 6.382812 11.625 5.433594 11.144531 5.277344 10.5 Z M 4.914062 10.5 "
       id="path1474" />
    <path
       style=" stroke:none;fill-rule:nonzero;fill:rgb(81.568627%,62.745098%,0%);fill-opacity:1;"
       d="M 14.25 9.9375 C 14.25 9.625 13.664062 9.375 12.9375 9.375 C 12.210938 9.375 11.625 9.625 11.625 9.9375 C 11.625 10.25 12.210938 10.5 12.9375 10.5 C 13.664062 10.5 14.25 10.25 14.25 9.9375 Z M 14.25 9.9375 "
       id="path1476" />
  </g>
</svg>

<svg xmlns="http://www.w3.org/2000/svg" width="22" height="22" viewBox="0 0 18 18">
 <g>
  <path d="m 3.375 9.188 c 0 -0.313 -0.586 -0.563 -1.313 -0.563 c -0.727 0 -1.313 0.25 -1.313 0.563 c 0 0.313 0.586 0.563 1.313 0.563 c 0.727 0 1.313 -0.25 1.313 -0.563 m 0 0" style="fill:#cf9f00;fill-opacity:1;stroke:none;fill-rule:nonzero"/>
  <path d="m 15.75 9 c 0 3.211 -3.02 5.813 -6.75 5.813 c -3.727 0 -6.75 -2.602 -6.75 -5.813 c 0 -3.211 3.02 -5.813 6.75 -5.813 c 3.727 0 6.75 2.602 6.75 5.813 m 0 0" style="fill:#ffd95d;fill-opacity:1;stroke:none;fill-rule:nonzero"/>
  <path d="m 5.25 6.75 c -0.52 0 -0.938 0.418 -0.938 0.938 c 0 0.094 0.016 0.188 0.043 0.281 c 0.125 -0.391 0.484 -0.656 0.895 -0.656 c 0.41 0 0.77 0.266 0.895 0.656 c 0.027 -0.09 0.043 -0.184 0.043 -0.281 c 0 -0.52 -0.418 -0.938 -0.938 -0.938 m 0 0" style="fill:#646464;fill-opacity:1;stroke:none;fill-rule:nonzero"/>
  <path d="m 9.75 6.75 c -0.52 0 -0.938 0.418 -0.938 0.938 c 0 0.094 0.016 0.188 0.043 0.281 c 0.125 -0.391 0.484 -0.656 0.895 -0.656 c 0.41 0 0.77 0.266 0.895 0.656 c 0.027 -0.09 0.043 -0.184 0.043 -0.281 c 0 -0.52 -0.418 -0.938 -0.938 -0.938 m 0 0" style="fill:#646464;fill-opacity:1;stroke:none;fill-rule:nonzero"/>
  <path d="m 4.914 10.5 c 0.211 1.082 1.305 1.875 2.586 1.875 c 1.281 0 2.371 -0.793 2.586 -1.875 l -0.363 0 c -0.156 0.645 -1.105 1.125 -2.223 1.125 c -1.117 0 -2.066 -0.48 -2.223 -1.125 m -0.363 0" style="fill:#646464;fill-opacity:1;stroke:none;fill-rule:nonzero"/>
  <path d="m 14.25 9.938 c 0 -0.313 -0.586 -0.563 -1.313 -0.563 c -0.727 0 -1.313 0.25 -1.313 0.563 c 0 0.313 0.586 0.563 1.313 0.563 c 0.727 0 1.313 -0.25 1.313 -0.563 m 0 0" style="fill:#cf9f00;fill-opacity:1;stroke:none;fill-rule:nonzero"/>
 </g>
</svg>
